X:275
T:Alley Bennett
M:4/4
L:1/8
R:reel
Z:Michael Abraham Shulman
N:Learned from Kira Ott
N:Set is Cuz Teehan's - ~
K:A
E2ED EFAB|cfec BAFA|B~F3 dcBA|GBAF EFED|
E2ED EFAB|cfec BAFA|B~F3 dcBA|1 EAGB A2AF:|2 EAGB ABcd|
%%text The above phrase is supposed to start below low `D', but I don't know exactly how.  Sorry.
e2ef edcd|eaag aece|f~B3 dcBA|GBAF EBcd|
e2ef edcd|eaag aece|f~B3 dcBA|EAGB ABcd|
e2ef edcd|eaag aece|f~B3 dcBA|GBAF EFED|
E2ED EFAB|cfec BAFA|B~F3 dcBA|EAGB A2AF||
